azure-patterns/svg-split-arrow-bullet.svg

<svg xmlns="http://www.w3.org/2000/svg" viewBox="0 0 34 24">
                                
                            
    <g stroke="none" stroke-width="1" fill="none" fill-rule="evenodd">
        <polygon fill="#FFFFFF" points="5.0841 11.4155 0.7501 22.8325 32.9161 11.4155 0.7501 0.7495"></polygon>
        <path d="M2.0566,1.9732 L5.7796,11.1332 C5.8506,11.3092 5.8526,11.5042 5.7856,11.6822 L2.0266,21.5832 L30.6066,11.4402 L2.0566,1.9732 Z M0.7496,23.5822 C0.5516,23.5822 0.3576,23.5032 0.2136,23.3572 C0.0096,23.1482 -0.0544,22.8392 0.0486,22.5662 L4.2786,11.4252 L0.0546,1.0322 C-0.0544,0.7612 0.0026,0.4512 0.2026,0.2372 C0.4026,0.0232 0.7076,-0.0528 0.9866,0.0372 L33.1536,10.7032 C33.4566,10.8042 33.6636,11.0872 33.6666,11.4082 C33.6696,11.7282 33.4696,12.0152 33.1676,12.1222 L1.0006,23.5392 C0.9186,23.5692 0.8336,23.5822 0.7496,23.5822 Z" fill="#0078D4"></path>
        <polygon fill="#0078D4" points="5.375 12.2076 31.875 12.2076 31.875 10.7076 5.375 10.7076"></polygon>
    </g>
</svg>

<svg xmlns="http://www.w3.org/2000/svg" viewBox="0 0 34 24"><g fill="none" fill-rule="evenodd"><path fill="#FFF" d="M5.084 11.415L.75 22.834l32.166-11.417L.75.748z"/><path d="M2.057 1.973l3.723 9.16a.754.754 0 0 1 .006.55l-3.76 9.9 28.58-10.143-28.55-9.467zM.75 23.583a.753.753 0 0 1-.536-.226.753.753 0 0 1-.165-.79l4.23-11.142L.055 1.032A.753.753 0 0 1 .987.037l32.167 10.666a.75.75 0 0 1 .014 1.42L1 23.538a.728.728 0 0 1-.251.043z" fill="#0078D4"/><path fill="#0078D4" d="M5.375 12.208h26.5v-1.5h-26.5z"/></g></svg>
